proprietary/assets/icons/op-kantoor/document-met-persoon.svg

<svg enable-background="new 0 0 64 64" viewBox="0 0 64 64" xmlns="http://www.w3.org/2000/svg"><path d="m0 0h64v64h-64z" fill="none"/><path d="m27.832 30.695c-.088-.024-.192-.029-.298.021-.196.091-.292.386-.292.93 0 .545.14 1.418.84 1.634.165 1.377.718 2.331 1.457 3.126-.052.476-.102.936-.52 1.162-.917.248-3.798 1.085-4.707 2.042-1.082 1.139-1.503 5.39-1.503 5.39h18.381s-.406-4.251-1.488-5.39c-.834-.878-3.413-1.658-4.564-1.972-.538-.147-.621-.693-.679-1.249.731-.817 1.274-1.805 1.458-3.109.699-.216.84-1.089.84-1.634 0-.544-.096-.839-.292-.93-.094-.044-.186-.044-.268-.026.07-1.135.141-3.383-.332-4.227-.517-.923-1.205-1.163-2.402-.861-.786-.417-1.321-.829-2.697-.454-.957.261-2.003.686-2.555 1.397-.594.766-.479 3.001-.379 4.15z"/><path d="m50 7h-21.171c-.531 0-1.04.211-1.415.586l-14.828 14.828c-.375.375-.586.884-.586 1.415v31.171c0 1.1.9 2 2 2h36c1.104 0 2-.896 2-2v-46c0-1.104-.896-2-2-2zm-3 45h-30v-26.708l-3.148-.932c-.342-.11-.219-.36-.219-.36h14.367c.552 0 1-.448 1-1v-14.366s.251-.11.36.231l.932 3.135h16.708z"/></svg>

<?xml version="1.0" encoding="utf-8"?>
<!-- Generator: Adobe Illustrator 25.0.0, SVG Export Plug-In . SVG Version: 6.00 Build 0)  -->
<svg version="1.1" xmlns="http://www.w3.org/2000/svg" xmlns:xlink="http://www.w3.org/1999/xlink" x="0px" y="0px"
	 viewBox="0 0 64 64" style="enable-background:new 0 0 64 64;" xml:space="preserve">
<style type="text/css">
	.st0{fill:none;}
	.st1{fill:#FFFFFF;}
	.st2{fill:#B3B3B3;}
</style>
<g id="Box">
	<rect class="st0" width="64" height="64"/>
</g>
<g id="Icon">
	<g>
		<path d="M27.832,30.695c-0.088-0.024-0.192-0.029-0.298,0.021c-0.196,0.091-0.292,0.386-0.292,0.93c0,0.545,0.14,1.418,0.84,1.634
			c0.165,1.377,0.718,2.331,1.457,3.126c-0.052,0.476-0.102,0.936-0.52,1.162c-0.917,0.248-3.798,1.085-4.707,2.042
			C23.23,40.749,22.809,45,22.809,45h18.381c0,0-0.406-4.251-1.488-5.39c-0.834-0.878-3.413-1.658-4.564-1.972
			c-0.538-0.147-0.621-0.693-0.679-1.249c0.731-0.817,1.274-1.805,1.458-3.109c0.699-0.216,0.84-1.089,0.84-1.634
			c0-0.544-0.096-0.839-0.292-0.93c-0.094-0.044-0.186-0.044-0.268-0.026c0.07-1.135,0.141-3.383-0.332-4.227
			c-0.517-0.923-1.205-1.163-2.402-0.861c-0.786-0.417-1.321-0.829-2.697-0.454c-0.957,0.261-2.003,0.686-2.555,1.397
			C27.617,27.311,27.732,29.546,27.832,30.695z"/>
		<path d="M50,7H28.829c-0.531,0-1.04,0.211-1.415,0.586L12.586,22.414C12.211,22.789,12,23.298,12,23.829V55c0,1.1,0.9,2,2,2h36
			c1.104,0,2-0.896,2-2V9C52,7.896,51.104,7,50,7z M47,52H17V25.292l-3.148-0.932C13.51,24.25,13.633,24,13.633,24H28
			c0.552,0,1-0.448,1-1V8.634c0,0,0.251-0.11,0.36,0.231L30.292,12H47V52z"/>
	</g>
</g>
</svg>
